X: 7
T:On the Waggon
M:4/4
L:1/4
Q:110
S:Dolly Curtis
A:MID SUFFOLK
D:Who Owns THe Game
H:ref John Howso
Z:BILL JOHNSTON
K:C
AB|ccGF|EG3|AAFA|G3B|ccGF|EG3|ABdB|c2||:
cd|e>dec|AG3|cBcA|GE3|e>dec|AG3|ABdB|c2||:
